X:174
T:Rowley Belt’s #1Hornpipe,aka TS.174
C:untitled ‘Hornpipe’ in MS
M:C|
L:1/8
Q:1/2=90
S:Thomas Sands’ MS,1810,Lincolnshire
R:.hornpipe
C:’Rowley Belt’
O:England;Lincolnshire
Z:vmp.Ruairidh Greig, 2011
K:F
(cB)|(AB/c/)F2F2(GA)|BABc BcdB|Acde fgaf|bagf edcB|
(AB/c/)F2F2(GA)|BABc BcdB|Acfc dBGE|F2F2F2:|
|:(fg)|afdf gece|defd cAFA|Bdfd cAGF|E2C2C3B,|
A,FAF DFBD|CFAF DFBD|Acfc dBGE|F2F2F2:|]

